public/images/triangleWhite.svg

<?xml version="1.0" encoding="UTF-8"?>
<svg width="29px" height="27px" viewBox="0 0 29 27" version="1.1" xmlns="http://www.w3.org/2000/svg" xmlns:xlink="http://www.w3.org/1999/xlink">
    <!-- Generator: sketchtool 50.2 (55047) - http://www.bohemiancoding.com/sketch -->
    <title>7531CA39-7ABE-4C16-BDD1-2892285327EF</title>
    <desc>Created with sketchtool.</desc>
    <defs></defs>
    <g id="Page-1" stroke="none" stroke-width="1" fill="none" fill-rule="evenodd">
        <g id="Flöde---med-drift" transform="translate(-57.000000, -594.000000)" fill="#FFFFFF" fill-rule="nonzero">
            <g id="Menu-Copy-2" transform="translate(0.000000, 584.000000)">
                <g id="Triangel" transform="translate(46.000000, 0.000000)">
                    <g transform="translate(11.000000, 10.000000)">
                        <path d="M3,27 L25.8,27 C26.8406406,26.9995985 27.8025374,26.4457723 28.3253484,25.5459936 C28.8481594,24.6462149 28.8529783,23.5362844 28.338,22.632 L16.476,1.8 C16.0533148,1.03604203 15.2490948,0.561895004 14.376,0.561895004 C13.5029052,0.561895004 12.6986852,1.03604203 12.276,1.8 L0.444,22.572 C-0.0832787506,23.4852735 -0.083327074,24.6104617 0.44387323,25.5237805 C0.971073534,26.4370993 1.94544255,26.9998189 3,27 Z M2.514,23.772 L14.4,3 L26.28,23.796 C26.388022,23.9628597 26.3919028,24.1765881 26.2900095,24.3472594 C26.1881162,24.5179306 25.9981349,24.6159205 25.8,24.6 L3,24.6 C2.80107457,24.604614 2.61608239,24.4982435 2.52,24.324 C2.41722255,24.1494427 2.41953225,23.9323313 2.526,23.76 L2.514,23.772 Z" id="Shape"></path>
                        <path d="M14.4,17.4 C15.0627417,17.4 15.6,16.8627417 15.6,16.2 L15.6,11.4 C15.6,10.7372583 15.0627417,10.2 14.4,10.2 C13.7372583,10.2 13.2,10.7372583 13.2,11.4 L13.2,16.2 C13.2,16.8627417 13.7372583,17.4 14.4,17.4 Z" id="Shape"></path>
                        <circle id="Oval" cx="14.388" cy="20.988" r="1.2"></circle>
                    </g>
                </g>
            </g>
        </g>
    </g>
</svg>

<svg width="29" height="27" xmlns="http://www.w3.org/2000/svg"><g fill="#FFF" fill-rule="nonzero"><path d="M3 27h22.8a2.92 2.92 0 0 0 2.54-4.37L16.48 1.8a2.4 2.4 0 0 0-4.2 0L.44 22.57A2.95 2.95 0 0 0 3 27zm-.49-3.23L14.4 3l11.88 20.8a.52.52 0 0 1-.48.8H3c-.2 0-.38-.1-.48-.28a.55.55 0 0 1 0-.56v.01z"/><path d="M14.4 17.4c.66 0 1.2-.54 1.2-1.2v-4.8a1.2 1.2 0 1 0-2.4 0v4.8c0 .66.54 1.2 1.2 1.2z"/><circle cx="14.39" cy="20.99" r="1.2"/></g></svg>
